X: 15
T:Untitled. HA.016
M:6/4
Q:100
S:Henry Atkinson's original MS,Hartburn,N'umberland,1694.
O:England
A:Hartburn,Northumberland
N:Superfluous "Natural" signs above all the E notes. A most beautiful
N:tune, easily edited.CGP
H:1/4
Z:vmp.Chris Partington.Jan.2004
K:F
c"#NB"ef/ ga/g|f"#"e2 d/c/d/"#"e/ d|c"#"ef/ gag|f"#"e2d2||!
dB2 "#"e2d|(c/B/)(c/d/)(c/B/) A2-A|fdc BA/B/c|dd2c2||!
zzz|zzz|zzz|!
"Edited by CGP"ce>f g>ag|fe2 d/c/d/e/ d|ce>f gag|fe2d3||!
dB2 e2d|(c/B/)(c/d/)(c/B/) A2-A|fdc BA/B/c|dd2c3|]
